!!!OTL: I'm Sitting on top of the World
!!!COM: Henderson, Ray
!!!LAR: Hugo Frey
!! "I'm Sitting On Top Of the World" by Ray Henderson
!! from "Barbershop Memories" compiled and arranged by Hugo Frey
!! copyright 1975 by EMI Music Publ. Ltd.; p. 27; alla breve; in F major
**kern	**kern	**kern	**kern
*Ivox	*Ivox	*Ivox	*Ivox
*M2/2	*M2/2	*M2/2	*M2/2
*F:	*F:	*F:	*F:
4G	4B-	4c	4e
=1	=1	=1	=1
4F	4A	4c	4f
2F	2c	2A	{4f
.	.	.	4e}
4F	4A	4c	4e-
=2	=2	=2	=2
4F	4B-	4d	4d
2D	2F	2B-	2f
4BB-	4B-	4d	4f
=3	=3	=3	=3
[1F	[1A	[1c	4f
.	.	.	8f
.	.	.	[8f
.	.	.	8f]
.	.	.	8c
.	.	.	4d
=4	=4	=4	=4
4F]	4A]	4c]	4A
4r	4r	8C	4r
.	.	[8C	.
2r	2r	8C]	2r
.	.	8D	.
.	.	4F	.
=5	=5	=5	=5
4r	4r	[1G	4r
8D	8Bn	.	8f
[8D	[8B	.	[8f
8D]	8B]	.	8f]
8D	8B	.	8f
4D	4B	.	4f
=6	=6	=6	=6
4C	4B-	4G]	4e
4r	4r	8G	4r
.	.	[8G	.
2r	2r	8G]	2r
.	.	8A	.
.	.	4G	.
=7	=7	=7	=7
4r	4r	1F	4r
8A	8c	.	8f
[8A	[8c	.	[8f
8A]	8c]	.	8f]
8A	8c	.	8f
4A	4c	.	4f
=8	=8	=8	=8
[2F	[2B-	[2G	[2d
8E]	8B-]	8G]	8c]
8r	8r	8r	8r
4C	4G#	4c	4e
=9	=9	=9	=9
4F	4A	4c	4f
2F	2c	2A	{4f
.	.	.	4e}
4F	4A	4c	4e-
=10	=10	=10	=10
4F	4B-	4d	4d
2D	2F	2B-	2f
4BB-	4B-	4d	4f
=11	=11	=11	=11
[1F	[1A	[1c	4f
.	.	.	8f
.	.	.	[8f
.	.	.	8f]
.	.	.	8c
.	.	.	4d
=12	=12	=12	=12
4F]	4A]	4c]	4A
4r	4r	8C	4r
.	.	[8C	.
2r	2r	8C]	2r
.	.	8D	.
.	.	4F	.
=13	=13	=13	=13
4r	4r	1G	4r
8D	8Bn	.	8f
[8D	[8B	.	[8f
8D]	8B]	.	8f]
8D	8B	.	8f
4D	4B	.	4f
=14	=14	=14	=14
4C	4B-	4G	4e
8C	8B-	8G	8e
[8C	[8B-	[8G	[8e
8C]	8B-]	8G]	8e]
8C	8B-	8A	8e
4B-	4c	4G	4e
=15	=15	=15	=15
2A	2c	1F	2f
2G#	2Bn	.	2d
=16	=16	=16	=16
4A	4c	4F	4e-
4r	4r	8F	4r
.	.	8G	.
2r	2r	8A	2r
.	.	8B-	.
.	.	8c	.
.	.	8c#	.
=17	=17	=17	=17
4BB-	4F	4d	4f
4BB-	4F	4B-	4d
4.BB-	4.F	4.d	4.f
8BB-	8F	8B-	8d
=18	=18	=18	=18
4BB-	4G	4d	4f
2BBn	2G#	2e	2d
4BB	4G#	4d	4f
=19	=19	=19	=19
4C	4A	4c	4f
8F	8A	8c	8f
[8F	[8A	[8c	[8f
8F]	8A]	8c]	8f]
8F	8G#	8Bn	8f
4F	4A	4c	4f
=20	=20	=20	=20
4F	1c	1A	1f
4C	.	.	.
{4D	.	.	.
4E}	.	.	.
=21	=21	=21	=21
4F	4c	4A	4f
4A	4c	4F	4d
4F	4c	4A	4f
4A	4c	4F	4d
=22	=22	=22	=22
4E-	4c	4A	4f
2.D	{2c	[2.d	2.f#
.	4A}	.	.
=23	=23	=23	=23
4G	4Bn	4d]	4fn
8D	8B	8A	8f
[8D	[8B	[8A	[8f
8D]	8B]	8A]	8f]
8GG	8B	8d	8f
4GG	4B	4A	4f
=24	=24	=24	=24
4C	4B-	2.G	4e
4C	4B-	.	4e
4D	4B-	.	4d
4E	4B-	4c	4c
=25	=25	=25	=25
4F	4A	4c	4f
2F	2c	2A	{4f
.	.	.	4e}
4F	4A	4c	4e-
=26	=26	=26	=26
4F	4B-	4d	4d
2D	2F	2B-	2f
4BB-	4B-	4d	4f
=27	=27	=27	=27
[1F	[1A	[1c	4f
.	.	.	8f
.	.	.	[8f
.	.	.	8f]
.	.	.	8c
.	.	.	4d
=28	=28	=28	=28
4F]	4A]	4c]	4A
4r	4r	8C	4r
.	.	[8C	.
2r	2r	8C]	2r
.	.	8D	.
.	.	4F	.
=29	=29	=29	=29
4r	4r	[1G	4r
8D	8Bn	.	8f
[8D	[8B	.	[8f
8D]	8B]	.	8f]
8D	8B	.	8f
4D	4B	.	4f
=30	=30	=30	=30
4C	4B-	4G]	4e
8C	8B-	8c	8e
[8C	[8B-	[8c	[8e
8C]	8B-]	8c]	8e]
8C	8B-	8c	8e
4C	4c	4A	4e
=31	=31	=31	=31
2A;	2c;	2F;	2f;
4F	4F	4A	4c
4F	4G	4B-	4d
=32	=32	=32	=32
2F	2A	2c	2f
4.F	4.B-	4.d	4.g
8F	8B-	8d	8g
=33	=33	=33	=33
[1F	[1c	[1f	[1a
=34	=34	=34	=34
2F]	2c]	2f]	2a]
2r	2r	2r	2r
==	==	==	==
*-	*-	*-	*-
